X:1
T:Title
%%score { ( 1 4 ) | ( 2 3 ) }
L:1/8
M:4/4
K:Ab
V:1 treble nm="Grand Piano"
V:4 treble 
V:2 bass 
V:3 bass 
V:1
 z4 z2 z[Q:1/4=88] [CE] | [CA][CA] [CA][CA]/B/ cccc |[M:7/8] [Fd][Fd][DF] [Fd] c3 |[M:1/8] c | %4
[M:4/4] [Ac][GB][GB][Gd] cBAc |[M:7/8] BBc =d [Ge]3 |[M:1/8] c | %7
[M:4/4] z .[Ece]3[K:bass][K:treble] z4 | [FB][FA][FA][DF] [CE]3 [CE] | [DF] [FA]2 [FB] c e2 [Ec] | %10
 [=DB]2 [Ac]2 [GB]3 c | z .[Ece]3[K:bass][K:treble] z4 | [FB][FA][FA][FB] [=Ec]3 _E | %13
[M:9/8] FGA Bce- e2 [Fd] |[M:19/16] [Ec][Ae]/-[Ae]/-[Ae]-<[Ae][Ac][GB]/-[GB]/-[GB]-<[GB]A3/2 |] %15
V:2
 z4 z2 z [A,,A,] | [A,,E,][A,,E,] .[A,,E,]>[K:treble]D [A,E][A,E][A,E][A,E] | %2
[M:7/8][K:bass] [D,A,][D,A,][D,A,] [D,A,] [A,E]3 |[M:1/8] [A,EA] | %4
[M:4/4] [E,E][E,D][E,D][E,B,] [A,E][E,DE][K:treble][A,CE][A,EA] | %5
[M:7/8] [B,=DA][B,DA][B,EA] [B,FA] [E,E]3 |[M:1/8] [A,A] | %7
[M:4/4][K:bass] [A,,A,][A,,A,] z [E,G,E] [A,C] [A,C]2 [A,,A,] | %8
 [D,A,][D,D][D,D][D,A,] [A,,A,]3 [A,,A,] | [D,A,] [D,D]2 [D,A,] [A,E] [A,CE]2 [A,,A,] | %10
 [B,,F,]2 [B,,B,]2 [E,B,]3 [A,A] | [A,,A,][A,,A,] z [E,G,D] [A,C] [A,C]2 [A,,A,] | %12
 [D,A,][D,D][D,A,][D,F,] [C,G,]3 E, |[M:9/8] F,G,A, B,CE- E2 [D,A,] | %14
[M:19/16] [E,A,][E,C]/-[E,C]/-[E,C]-<[E,C][E,E][E,D]/-[E,D]/-[E,D]-<[E,D][A,C]3/2 |] %15
V:3
 x8 | z2 z [A,,A,][K:treble] z4 |[M:7/8][K:bass] x7 |[M:1/8] x |[M:4/4] x6[K:treble] x2 | %5
[M:7/8] x7 |[M:1/8] x |[M:4/4][K:bass] x8 | x8 | x8 | x8 | x8 | x8 |[M:9/8] x9 |[M:19/16] x19/2 |] %15
V:4
 x8 | x8 |[M:7/8] x7 |[M:1/8] x |[M:4/4] x8 |[M:7/8] x7 |[M:1/8] x | %7
[M:4/4] .[Ece]2[K:bass] [C,A,][K:treble][Bd] [Ac] [Ac]2 [CEc] | x8 | x8 | x8 | %11
 .[Ece]2[K:bass] [C,A,][K:treble][Bd] [Ac] [Ac]2 [CEc] | x8 |[M:9/8] x9 |[M:19/16] x19/2 |] %15

